X:870
T:Garden Where The Praties Grow, The
C:Joe Buchanan's Scottish Tome - Page 431.2
I:431 2
R:Two-step
Z:Carl Allison
L:1/8
M:6/8
K:A
(E2 F) | "A"A2 B c2 c | "A"E2 F A2 c | "E7"B2 A A2 B | "A7"(A3 A2) c |
"D"d2 d d2 d | "A"c2 d "F#m"e2 c | "B7"B2 ^A B2 c | "E7"B3- B2 c |
"D"d2 d e2 c | "A"B2 c "F#m"e2 c | "Bm"B2 c B2 A | "D"F3 "E7"(E2 F) |
"A"A2 B c2 c | "A"E2 F "F#m"A2 c | "B7"B3 "E7"A3 | "A"A6 |]
